dist/img/home/card_6.svg

<svg width="153" height="164" viewBox="0 0 153 164" fill="none" xmlns="http://www.w3.org/2000/svg">
<line x1="3.2561" y1="45.0752" x2="3.25611" y2="114.919" stroke="#C8C8C8" stroke-dasharray="4 4"/>
<path d="M124.749 92.4188L88.4571 72.6369L3.75684 116.553L40.049 136.335M124.749 92.4188L124.504 89.644M124.749 92.4188L119.537 92.2189" stroke="#6F6F6F"/>
<path d="M50.9656 142.284L87.2578 162.066L171.958 118.149L135.666 98.3673M50.9656 142.284L51.2112 145.059M50.9656 142.284L56.1774 142.484" stroke="#6F6F6F"/>
<path d="M124.277 21.0694L87.9844 1.28755L3.28418 45.2041L39.5764 64.9859M124.277 21.0694L124.031 18.2946M124.277 21.0694L119.065 20.8695" stroke="#CA0001"/>
<path d="M50.4929 70.9345L86.7851 90.7164L171.485 46.7998L135.193 27.018M50.4929 70.9345L50.7386 73.7093M50.4929 70.9345L55.7047 71.1344" stroke="#CA0001"/>
<path d="M91.971 51.1975L89.3261 52.4685L87.1932 51.2205L89.8382 49.9495L87.972 48.8575L85.327 50.1285L83.1942 48.8805L85.8391 47.6095L76.2681 42.009L82.1426 39.1861C83.0336 38.758 84.0021 38.4346 85.0483 38.216C86.0666 38.0108 87.0802 37.9215 88.1169 37.9347C89.1536 37.9479 90.1844 38.106 91.2105 38.3801C92.2366 38.6541 93.2034 39.0419 94.1099 39.5723C94.963 40.0715 95.6236 40.6064 96.1207 41.1346C96.59 41.6762 96.8134 42.2223 96.8176 42.7885C96.8218 43.3547 96.5802 43.9254 96.066 44.485C95.5507 45.0736 94.7096 45.6198 93.5959 46.155L90.4777 47.6534L92.3439 48.7454L98.5247 45.7753L100.658 47.0234L94.4767 49.9935L97.436 51.7251L94.9303 52.9292L91.971 51.1975ZM80.9067 42.0529L88.3449 46.4054L91.4631 44.907C92.7995 44.2648 93.5085 43.6116 93.5635 42.9317C93.6452 42.2674 93.0195 41.5452 91.6865 40.7652C89.2604 39.3456 86.7255 39.2568 84.1084 40.5144L80.9067 42.0529Z" fill="#CA0001"/>
<path d="M91.971 124.512L89.3261 125.783L87.1932 124.535L89.8382 123.264L87.972 122.172L85.327 123.443L83.1942 122.195L85.8391 120.924L76.2681 115.324L82.1426 112.501C83.0336 112.073 84.0021 111.75 85.0483 111.531C86.0666 111.326 87.0802 111.236 88.1169 111.25C89.1536 111.263 90.1844 111.421 91.2105 111.695C92.2366 111.969 93.2034 112.357 94.1099 112.887C94.963 113.386 95.6236 113.921 96.1207 114.45C96.59 114.991 96.8134 115.537 96.8176 116.103C96.8218 116.67 96.5802 117.24 96.066 117.8C95.5507 118.389 94.7096 118.935 93.5959 119.47L90.4777 120.968L92.3439 122.06L98.5247 119.09L100.658 120.338L94.4767 123.308L97.436 125.04L94.9303 126.244L91.971 124.512ZM80.9067 115.368L88.3449 119.72L91.4631 118.222C92.7995 117.58 93.5085 116.926 93.5635 116.247C93.6452 115.582 93.0195 114.86 91.6865 114.08C89.2604 112.661 86.7255 112.572 84.1084 113.829L80.9067 115.368Z" fill="#C8C8C8"/>
</svg>

<svg width="153" height="164" viewBox="0 0 153 164" fill="none" xmlns="http://www.w3.org/2000/svg"><path stroke="#C8C8C8" stroke-dasharray="4 4" d="M3.256 45.075v69.844"/><path d="M124.749 92.419L88.457 72.637l-84.7 43.916 36.292 19.782m84.7-43.916l-.245-2.775m.245 2.775l-5.212-.2m-68.571 50.065l36.292 19.782 84.7-43.917-36.292-19.782m-84.7 43.917l.245 2.775m-.245-2.775l5.211.2" stroke="#6F6F6F"/><path d="M124.277 21.07L87.984 1.287l-84.7 43.916 36.292 19.782m84.701-43.917l-.246-2.774m.246 2.774l-5.212-.2M50.493 70.934l36.292 19.782 84.7-43.916-36.292-19.782m-84.7 43.916l.246 2.775m-.246-2.775l5.212.2" stroke="#CA0001"/><path d="M91.971 51.197l-2.645 1.271-2.133-1.248 2.645-1.27-1.866-1.093-2.645 1.272-2.133-1.248 2.645-1.272-9.57-5.6 5.874-2.823c.89-.428 1.86-.751 2.905-.97a14.483 14.483 0 013.069-.281c1.037.013 2.067.171 3.093.445 1.027.274 1.993.662 2.9 1.192.853.5 1.514 1.034 2.01 1.563.47.541.693 1.087.698 1.654.004.566-.238 1.136-.752 1.696-.515.589-1.356 1.135-2.47 1.67l-3.118 1.498 1.866 1.092 6.18-2.97 2.134 1.248-6.181 2.97 2.959 1.732-2.506 1.204-2.959-1.732zm-11.064-9.144l7.438 4.352 3.118-1.498c1.337-.642 2.046-1.295 2.1-1.975.082-.665-.544-1.387-1.877-2.167-2.426-1.42-4.96-1.508-7.578-.25l-3.201 1.538z" fill="#CA0001"/><path d="M91.971 124.512l-2.645 1.271-2.133-1.248 2.645-1.271-1.866-1.092-2.645 1.271-2.133-1.248 2.645-1.271-9.57-5.6 5.874-2.823c.89-.428 1.86-.751 2.905-.97a14.443 14.443 0 013.069-.281c1.037.013 2.067.171 3.093.445 1.027.274 1.993.662 2.9 1.192.853.499 1.514 1.034 2.01 1.563.47.541.693 1.087.698 1.653.004.567-.238 1.137-.752 1.697-.515.589-1.356 1.135-2.47 1.67l-3.118 1.498 1.866 1.092 6.18-2.97 2.134 1.248-6.181 2.97 2.959 1.732-2.506 1.204-2.959-1.732zm-11.064-9.144l7.438 4.352 3.118-1.498c1.337-.642 2.046-1.296 2.1-1.975.082-.665-.544-1.387-1.877-2.167-2.426-1.419-4.96-1.508-7.578-.251l-3.201 1.539z" fill="#C8C8C8"/></svg>
